icons/lines/crown-1.svg

<svg xmlns="http://www.w3.org/2000/svg" width="24" height="24" viewBox="0 0 24 24" fill="none" stroke="currentColor" stroke-width="2" stroke-linecap="round" stroke-linejoin="round" >
  <path d="M16.7002 18.98H7.3002C6.8802 18.98 6.4102 18.65 6.2702 18.25L2.1302 6.66999C1.5402 5.00999 2.2302 4.49999 3.6502 5.51999L7.5502 8.30999C8.2002 8.75999 8.9402 8.52999 9.2202 7.79999L10.9802 3.10999C11.5402 1.60999 12.4702 1.60999 13.0302 3.10999L14.7902 7.79999C15.0702 8.52999 15.8102 8.75999 16.4502 8.30999L20.1102 5.69999C21.6702 4.57999 22.4202 5.14999 21.7802 6.95999L17.7402 18.27C17.5902 18.65 17.1202 18.98 16.7002 18.98Z"/>
  <path d="M6.5 22H17.5"/>
  <path d="M9.5 14H14.5"/>
  </svg>

<svg xmlns="http://www.w3.org/2000/svg" width="24" height="24" viewBox="0 0 24 24" fill="none" stroke="currentColor" stroke-width="2" stroke-linecap="round" stroke-linejoin="round">
  <path d="M6.5 22h11" />
  <path d="M7.3 18.98c-.42 0-.89-.33-1.03-.73L2.13 6.67c-.59-1.66.1-2.17 1.52-1.15l3.9 2.79c.65.45 1.39.22 1.67-.51l1.76-4.69c.56-1.5 1.49-1.5 2.05 0l1.76 4.69c.28.73 1.02.96 1.66.51l3.66-2.61c1.56-1.12 2.31-.55 1.67 1.26l-4.04 11.31c-.15.38-.62.71-1.04.71z" />
  <path d="M9.5 14h5" />
</svg>
